!!!OTL: Schönstes Röschen (83), S. 225
!!!id: T0240
**kern
*clefG2
*k[]
*G:
{8g
8g
=1
4g
8d
8r
8b
8b
=2
4b
8g}
8r
=3
{8g
8b
=4
4.dd
8b
8cc
8b
=5
4a}
4r
=6
{8dd
8cc
=7
8.b
16b
4.b
8b
=8
4.ee
8dd
8dd
8cc
=9
4a}
4r
=10
{8b
8cc
=11
*M4/4
4dd
8g
8a
4b
4a
=12
4g}
4r
==
*-
!!!minrhy: 16
!!!meters: 3/4 4/4 ]  ZZ[4
!!!cut: Schönstes Röschen (83), S. 225
!!!reg: Luxemburg
!!!trd: Singendes Volk, Esch-Alzette 1937 posth.
!!!rhy1: X_X_  X__X_0X_X_  X__X_0   (x2)
!!!rhy2: X_X_  X__.X_X_X_  X__0_
!!!key: T0240  16  G 3/4 4/4 ]  ZZ[4
!!!mod: SECHSTONSKALA DUR ?]  AMBITUS[9
!!!kad: 1221
!!!akz: 13_52_362_531_
!!!fot: 'a__b__c__d__
!!!for: 'a__b__c__d__
!!!fok: '^__^a_\__^d_
!! PHRAS[AUFTAKTIG]
!!!fkt: Liebeslieder
!!!bem1: Stegen, hhh N. Pletschette (Lehrer; R&uuml;melingen), 1915;
!!!bem2: Reuland, Gabriel Petry, 1906, Textvarianten
!! THILL, Mathias:
!! PR[30] 2K[3] 2G[3] 3K[13] 3G[13] 4A[3] 4Ü[0] 5A[0] 6K[0] 6G[0]
!! 7K[0] 7G[0] 8A[0] MEHR[0] SI[33] ABS[40] SR[5] SP[28]
!! ST[20] 2k[5] 2g[20] 3k[5] 3g[3] 4d[5] 4ü[0] 5d[0] 6k[0] 6g[0]
!! 7k[0] 7g[0] 8d[0] mehr[0] si[38] dm[-5] sr[25] sp[13]
!! 1F[5] 2F[57] 3F[39] 4F[0] LF[0] 2P[0] 3P[0] 4P[0] TRI[0] DF[3] AB[44]
!! TF[0] U3K[0] U3[0] U4[0] U4Ü[0] U5[12] U6K[0] U6[5] U7K[0] U7[7]
!! N1[22] N2K[0] N2[24] N3K[0] N3[12] N4[7] N4Ü[0] N5[7] N6K[0] N6[2]
!!!n7k: 0] N7[0] O1[0] O2K[0] O2[0] O3K[0] O3[0] HÖ[0
!!!RNB: symbol: &uuml;  = u umlaut (UTF-8: Ã¼)
